X: 24
T:Cheerily and Merrily
K:F
M:6/8
c/2B/2AF G/2A/2GD| F2 F a2 g|gec d/2e/2dB| c>ed/2e/2 c3| c/2B/2AF G/2A/2GD| F2 F a2 g|gec d/2e/2dB| c>ed/2e/2 c3:|
|: cd/2e/2f dcA| G>AB/2c/2 d2 c| cAF G/2A/2GD|F>AG/2A/2 F3| cd/2e/2f dcA| G>AB/2c/2 d2 c| cAF G/2A/2GD|F>AG/2A/2 F3:|

